X:1
T: Pearlin' Jean
C:Muriel A Johnstone
R:Jig
%Q:180
K:Am
M:6/8
L:1/16
|:f2|e2A2A2 d3cB2|c2A2A2 A4d2|e2A2A2 d2c2A2|B2G2G2 G2B2c2|
e2A2A2 d3cA2|B2G2B2 c2d2e2|d2c2A2 G2A2B2|c2A2A2 A4:|
|:z2|a3ge2 f2e2d2|e2A2A2 A4a2|a2g2e2 d4c2|B2G2G2 G4e2|
a3ge2 f2e2d2|B2c2d2 e3de2|d2c2A2 G2A2B2|c2A2A2 A4:|
